X: 11731
T: Eleanor Kane's
R: reel
M: 4/4
K: Gmajor
|:A|BGFG EFGA|Bg ~g2 edBA|~G3 A BGEF|(G/F/E {F}ED) EDB,D|
~G3 A BABc|dg ~g2 efga|bg ~g2 agfg|1 ecAF GF G:|2 ecAF G3||
|:A|Bdef ~g3 a|bgfg edBA|BE{F}ED EFGA|B/c/d ^ce d2 ef|
g2 g/g/f gfed|B/d/B Ac BGEF|G2 BG FGAc|1 BGAF GF G:|2 BGAF G3||

